data/sheikah/l.svg

<!-- Generated by IcoMoon.io -->
<svg version="1.1" xmlns="http://www.w3.org/2000/svg" width="1024" height="1024" viewBox="0 0 1024 1024">
<title></title>
<g id="icomoon-ignore">
</g>
<path d="M153.5 273l119.5-119.5v398.5h79.5v-279l119.5-119.5h279l119.5 119.5h-398.5v279l-119.5 119.5h-79.5l-119.5-119.5v-279zM552 352.5h318.5v119.5h-318.5v-119.5zM552 552h318.5v119.5h-318.5v-119.5zM153.5 751l119.5 119.5h478l119.5-119.5h-717z"></path>
</svg>

<svg xmlns="http://www.w3.org/2000/svg" width="1024" height="1024" viewBox="0 0 1024 1024">
  <title/>
  <path d="M153.5 273 273 153.5V552h79.5V273L472 153.5h279L870.5 273H472v279L352.5 671.5H273L153.5 552zM552 352.5h318.5V472H552zm0 199.5h318.5v119.5H552zM153.5 751 273 870.5h478L870.5 751z"/>
</svg>
